X: 219
T: Kerry Polka
C: R-117
M: C|
Z: Transcribed to abc by Mary Lou Knack
R: polka
P: B Dorian
K: BDor
"Bm"B3c d2e2| f2b2 f3f| "A"e3c A2c2| "Bm"B2c2 "A"A4|
"Bm"B3c d2e2| f2b2 f3f| "A"e3c A2c2| "Bm"d2B2 B4 :|
\
"Bm"b2b2 f3f| b2b2 f3f| "A"e3c A2c2| "Bm"B2c2 "A"A4|
"Bm"b2b2 f3f| b2b2 f3f| "A"e3c A2c2| "Bm"d2B2 B4 |
"Bm"b2b2 f3f| b2b2 f3f| "A"e3c A2c2| "Bm"B2c2 "A"A4|
"Bm"B3c d2e2| f2b2 f3f| "A"e3c A2c2| "Bm"d2B2 B4|]
%%text 9/1/98


